X:1
T:In the Cleft of the Rock
T:In the Cleft of the Rock
T:John Sylvester Fearis
T:Lizzie Douglas Foulks DeArmond, 1900
T:Public Domain Courtesy of the Cyber Hymnal™
T:Public Domain Courtesy of the Cyber Hymnal™
C:John Sylvester Fearis
Z:Public Domain
Z:Courtesy of the Cyber Hymnal™
%%score ( 1 2 ) ( 3 4 )
L:1/8
Q:1/4=98
M:4/4
K:Bb
V:1 treble 
V:2 treble 
V:3 bass 
V:4 bass 
V:1
 [Fd]2 [Fd]>[Ec] [DB][DF][B,D][CE] | [DF]2 [DF]2 [EF]4 | [Ec]2 [Ec]>[DB] [EA][EF][EG][EF] | %3
w: 1.~High as the moun- tain tho’ the|bil- lows roll,|In Je- sus’ keep- ing I will|
w: 2.~O soul, be faith- ful, to the|end en- dure,|Trust- ing His prom- is- es for-|
w: 3.~When thro’ the Jor- dan I must|take my way,|His staff will com- fort me and|
 [DB]2 [Fd]2 (e2 c2) | [Fd]2 [Fd]>[Ec] [DB][DF][B,D][CE] | [DF]2 [FG]2 [FA]2 [FB][FG] | %6
w: trust my soul; *|He can the rag- ing seas and|wind con- trol, In the|
w: ev- er sure; *|Kept in the fort- ress of His|love se- cure, In the|
w: be my stay; *|O- ver the riv- er there is|end- less day, In the|
 [Fc]2 F>[FG] | [FA]2 CC | [CG]4 [CF]2 z2 ||"^Refrain" [Fd]4- [Fd][DF][Ec][DB] | [FB]2 [FA]4 z2 | %11
w: cleft of the|rock He will|hide me.|Hide * me, safe- ly|hide me,|
w: cleft of the|rock He will|hide me.|||
w: cleft of the|rock He will|hide me.|||
 [Ae]4- [Ae][FA][Fd][Ec] | [DB]2 [DF]4 z2 | [Af]4- [Af][Ad][Ac][AB] | [GB]2 [Ge]4 [GB][Gc] | %15
w: Hide * me, safe- ly|hide me,|Hide * me from all|dan- ger, In the|
w: ||||
w: ||||
 [Fd]2 [DF][DF] [Fd]3 [Ec] | [DB]6 z2 |] %17
w: Rock that was cleft for|me.|
w: ||
w: ||
V:2
 x8 | x8 | x8 | x4 F4 | x8 | x8 | x2 F3/2 x/ | x2 CC | x8 || x8 | x8 | x8 | x8 | x8 | x8 | x8 | %16
 x8 |] %17
V:3
 [B,,B,]2 [B,,B,]>[B,,B,] [B,,B,][B,,B,][B,,F,][B,,F,] | [B,,B,]2 [B,,G,]2 [C,A,]4 | %2
w: ||
 [F,A,]2 [F,A,]>[F,B,] [F,C][F,A,][F,A,][F,A,] | [B,,B,]2 [B,,B,]2 A,4 | %4
w: |* * Hide|
 [B,,B,]2 [B,,B,]>[B,,B,] [B,,B,][B,,B,][B,,F,][B,,F,] | [B,,B,]2 [B,,D]2 [C,C]2 [D,B,][_D,B,] | %6
w: ||
 [C,A,]2 [C,A,]>[C,A,] | [C,C]2 [C,A,][C,A,] | [C,B,]4 [F,A,]2 z2 || %9
w: |||
 [B,,B,][B,,B,][B,,B,][B,,B,] [B,,B,]2 z2 | E4- EF,G,F, | C4- [F,C]2 z2 | B,4- B,D,F,B, | %13
w: me, safe- ly hide, Hide|me, * safe- ly hide,|Hide me,|safe- * ly Hide me|
 D4- [B,D][B,F][B,E][B,D] | [E,E]2 [E,B,]4 [E,B,][E,B,] | [F,B,]2 [F,B,][F,B,] [F,B,]3 [F,A,] | %16
w: from dan- ger, from all|dan- ger * *||
 [B,,B,]6 z2 |] %17
w: |
V:4
 x8 | x8 | x8 | x4 (C,2 F,2) | x8 | x8 | x4 | x4 | x8 || x8 | (F,F,F,F,) F,2 x2 | (F,F,F,F,) x4 | %12
 (B,,B,,B,,B,,) B,,2 x2 | B,B,B,B, x4 | x8 | x8 | x8 |] %17

